svg/basketball_hoop.svg

<svg xmlns="http://www.w3.org/2000/svg" width="24" height="24" viewBox="0 0 24 24"><title>basketball_hoop</title><path fill="none" d="M0 0h24v24H0z"/><path d="M21 2H3a2 2 0 0 0-2 2v12a2 2 0 0 0 2 2h3.57L8 23l2-2 2 2 2-2 2 2 1.43-5H21a2 2 0 0 0 2-2V4a2 2 0 0 0-2-2m0 14h-3v-2h-1V9a2 2 0 0 0-2-2H9a2 2 0 0 0-2 2v5H6v2H3V4h18v12M9 14V9h6v5z"/></svg>

<svg xmlns="http://www.w3.org/2000/svg" width="24" height="24" viewBox="0 0 24 24">
  <title>basketball_hoop</title>
  <rect width="24" height="24" fill="none"/>
  <path d="M21,2H3A2,2,0,0,0,1,4V16a2,2,0,0,0,2,2H6.57L8,23l2-2,2,2,2-2,2,2,1.43-5H21a2,2,0,0,0,2-2V4a2,2,0,0,0-2-2m0,14H18V14H17V9a2,2,0,0,0-2-2H9A2,2,0,0,0,7,9v5H6v2H3V4H21V16M9,14V9h6v5Z"/>
</svg>
